X:1
T:Eric MacDonald's
R: reel
C:Ryan McKasson
L:1/8
M:4/4
K:Bmin
Bc|: d2 cB Afed | fBBA B2 de | cAde cAde | c/c/c de cABc | 
d2 cB Afed | fBBA BAfe | dBde cAde |1 ef ef dB Bc :|2 `ef ef dB B2||
B2 dB fdga | fdga fdad | eA A/A/A eA de | A/A/A e dcA A/A/A | 
B2 dB fdga | faga fdad | eA A/A/A eAde | f2 ef dB B2 | 
B2 dB fdga | fdga fdef | dAef dAde | cAde cAdc | 
B2 dB fdga | faga fdad | eA A/A/A eAde | ef ef dB B2 | 

